X:1069
T:The way to get Married.
N:each line ends with G2 in the book
M:9/8
L:1/8
Q:3/8=104
I: :: ::
Z:Jack Campin * www.campin.me.uk * 2009
K:G
Bcd dcB e3 |fga gdB AFD|Bcd dcB efg|dcB AGF G3:|
AFD DFD AFD|BdB gdc BAG|AFD DFD ABc|Bcd DEF G3:|

